Numix-GalliumOS/24/mimetypes/application-script-blank.svg

<?xml version="1.0" encoding="UTF-8" standalone="no"?>
<svg
   xmlns:dc="http://purl.org/dc/elements/1.1/"
   xmlns:cc="http://creativecommons.org/ns#"
   xmlns:rdf="http://www.w3.org/1999/02/22-rdf-syntax-ns#"
   xmlns:svg="http://www.w3.org/2000/svg"
   xmlns="http://www.w3.org/2000/svg"
   xmlns:sodipodi="http://sodipodi.sourceforge.net/DTD/sodipodi-0.dtd"
   xmlns:inkscape="http://www.inkscape.org/namespaces/inkscape"
   width="24"
   height="24"
   viewBox="0 0 24 24"
   id="svg2"
   version="1.1"
   inkscape:version="0.48.5 r10040"
   sodipodi:docname="application-script-blank.svg">
  <metadata
     id="metadata20">
    <rdf:RDF>
      <cc:Work
         rdf:about="">
        <dc:format>image/svg+xml</dc:format>
        <dc:type
           rdf:resource="http://purl.org/dc/dcmitype/StillImage" />
      </cc:Work>
    </rdf:RDF>
  </metadata>
  <defs
     id="defs18" />
  <sodipodi:namedview
     pagecolor="#ffffff"
     bordercolor="#666666"
     borderopacity="1"
     objecttolerance="10"
     gridtolerance="10"
     guidetolerance="10"
     inkscape:pageopacity="0"
     inkscape:pageshadow="2"
     inkscape:window-width="1280"
     inkscape:window-height="970"
     id="namedview16"
     showgrid="true"
     inkscape:zoom="11.313709"
     inkscape:cx="22.857595"
     inkscape:cy="14.240202"
     inkscape:window-x="0"
     inkscape:window-y="0"
     inkscape:window-maximized="1"
     inkscape:current-layer="svg2">
    <inkscape:grid
       type="xygrid"
       id="grid3008"
       empspacing="5"
       visible="true"
       enabled="true"
       snapvisiblegridlinesonly="true" />
  </sodipodi:namedview>
  <path
     style="fill:#dcdcdc"
     d="M 5,1 C 4.527343,1 4,1.527344 4,2 l 0,20 c 0,0.445312 0.554687,1 1,1 l 14,0 c 0.445313,0 0.992367,-0.554753 1,-1 L 20,7 14,1 z"
     id="path4"
     inkscape:connector-curvature="0"
     sodipodi:nodetypes="ssssssccs" />
  <path
     style="fill:#545454"
     inkscape:connector-curvature="0"
     id="path12"
     d="m 9,16.999995 c 0,0.425853 0.1093226,0.737055 0.3201575,0.933603 0.2108329,0.18835 0.5231802,0.28663 0.9292315,0.294819 l 0,0.876277 C 9.5622252,19.096505 9.0312348,18.916337 8.656418,18.564188 8.2816013,18.21204 8.0863847,17.712481 8.0863847,17.065511 l 0,-1.899962 c 0,-0.434043 -0.1093226,-0.737055 -0.3357738,-0.925412 C 7.5163514,14.051778 7.1883857,13.961693 6.7510995,13.961693 l 0,-0.884465 c 0.4763291,-0.0082 0.812103,-0.106463 1.0229379,-0.303011 0.2108349,-0.188358 0.3123473,-0.48318 0.3123473,-0.884465 l 0,-1.916341 c 0,-0.646969 0.2030247,-1.1465271 0.5934599,-1.5068668 C 9.0702797,8.1062087 9.5934599,7.9260388 10.249389,7.9260388 l 0,0.868085 C 9.4216699,8.8186928 9,9.236357 9,10.038926 l 0,1.850826 c 0,0.892654 -0.3982433,1.424971 -1.2103462,1.588763 l 0,0.07371 C 8.6017567,13.716014 9,14.248331 9,15.140985 L 9,17" />
  <path
     style="fill:#545454"
     inkscape:connector-curvature="0"
     id="path14"
     d="M 16.210347,13.47852 C 15.406052,13.314728 15,12.782411 15,11.889757 l 0,-1.850826 C 15,9.236362 14.586141,8.8186978 13.766229,8.7941288 l 0,-0.868085 c 0.671546,0 1.194728,0.1801699 1.569545,0.5486964 0.382625,0.3603376 0.577844,0.8598958 0.577844,1.4986758 l 0,1.916341 c 0,0.401285 0.10932,0.704296 0.320155,0.892654 0.210833,0.188359 0.554417,0.286633 1.030746,0.294822 l 0,0.884465 c -0.445096,0 -0.780868,0.09009 -1.007321,0.278444 -0.226452,0.188357 -0.34358,0.491369 -0.34358,0.925412 l 0,1.899962 c 0,0.638779 -0.187409,1.13834 -0.562225,1.490486 -0.367009,0.36034 -0.897999,0.540508 -1.585164,0.548697 l 0,-0.876277 c 0.406052,-0.0082 0.710591,-0.10646 0.921424,-0.294819 C 14.898488,17.737055 15,17.425853 15,17 l 0,-1.859015 c 0,-0.47499 0.101515,-0.835327 0.296731,-1.089202 0.203025,-0.245684 0.507564,-0.417664 0.913616,-0.499558 l 0,-0.07371" />
  <path
     style="fill:#000000;fill-opacity:0.19599998"
     d="m 15,7 5,5 0,-5 z"
     id="path6"
     inkscape:connector-curvature="0"
     sodipodi:nodetypes="cccc" />
  <path
     style="fill:#ffffff;fill-opacity:0.39200003"
     d="m 14,1 6,6 -5,0 C 14.554688,7 14,6.445312 14,6 z"
     id="path8"
     inkscape:connector-curvature="0"
     sodipodi:nodetypes="ccssc" />
</svg>

<svg xmlns="http://www.w3.org/2000/svg" viewBox="0 0 24 24">
 <path d="m 5 1 c -0.473 0 -1 0.527 -1 1 l 0 20 c 0 0.445 0.555 1 1 1 l 14 0 c 0.445 0 0.992 -0.555 1 -1 l 0 -15 -6 -6 z" style="fill:#dcdcdc"/>
 <path d="m 9 17 c 0 0.426 0.109 0.737 0.32 0.934 0.211 0.188 0.523 0.287 0.929 0.295 l 0 0.876 c -0.687 -0.008 -1.218 -0.188 -1.593 -0.541 -0.375 -0.352 -0.57 -0.852 -0.57 -1.499 l 0 -1.9 c 0 -0.434 -0.109 -0.737 -0.336 -0.925 c -0.234 -0.188 -0.562 -0.278 -1 -0.278 l 0 -0.884 c 0.476 -0.008 0.812 -0.106 1.023 -0.303 0.211 -0.188 0.312 -0.483 0.312 -0.884 l 0 -1.916 c 0 -0.647 0.203 -1.147 0.593 -1.507 c 0.39 -0.36 0.914 -0.541 1.57 -0.541 l 0 0.868 c -0.828 0.025 -1.249 0.442 -1.249 1.245 l 0 1.851 c 0 0.893 -0.398 1.425 -1.21 1.589 l 0 0.074 c 0.812 0.164 1.21 0.696 1.21 1.589 l 0 1.859" style="fill:#555;fill-opacity:1"/>
 <path d="m 16.21 13.479 c -0.804 -0.164 -1.21 -0.696 -1.21 -1.589 l 0 -1.851 c 0 -0.803 -0.414 -1.22 -1.234 -1.245 l 0 -0.868 c 0.672 0 1.195 0.18 1.57 0.549 0.383 0.36 0.578 0.86 0.578 1.499 l 0 1.916 c 0 0.401 0.109 0.704 0.32 0.893 0.211 0.188 0.554 0.287 1.031 0.295 l 0 0.884 c -0.445 0 -0.781 0.09 -1.01 0.278 -0.226 0.188 -0.344 0.491 -0.344 0.925 l 0 1.9 c 0 0.639 -0.187 1.138 -0.562 1.49 -0.367 0.36 -0.898 0.541 -1.585 0.549 l 0 -0.876 c 0.406 -0.008 0.711 -0.106 0.921 -0.295 c 0.211 -0.197 0.312 -0.508 0.312 -0.934 l 0 -1.859 c 0 -0.475 0.102 -0.835 0.297 -1.089 0.203 -0.246 0.508 -0.418 0.914 -0.5 l 0 -0.074" style="fill:#555;fill-opacity:1"/>
 <path d="m 15 7 5 5 0 -5 z" style="fill:#000;fill-opacity:0.196"/>
 <path d="m 14 1 6 6 -5 0 c -0.445 0 -1 -0.555 -1 -1 z" style="fill:#fff;fill-opacity:0.392"/>
</svg>
